images/mir.svg

<svg width="30" height="10" viewBox="0 0 30 10" fill="none" xmlns="http://www.w3.org/2000/svg">
<g id="mir">
<path id="Vector" d="M16.6811 1.84371L14.8643 5.75824H14.6805V1.00024H12.0851V9.00233H14.2371C14.8211 9.00233 15.3402 8.6671 15.5889 8.14805L17.4165 4.24433H17.6004V9.00233H20.1958V1.00024H18.0113C17.449 1.00024 16.9191 1.33547 16.6811 1.84371Z" fill="#319B42"/>
<path id="Vector_2" d="M6.97243 2.04917L5.90182 5.75824H5.71798L4.63656 2.04917C4.45271 1.42198 3.87956 1.00024 3.2307 1.00024H0.667725V9.00233H3.26315V4.24433H3.44699L4.93935 9.00233H6.66963L8.162 4.24433H8.34584V9.00233H10.9413V1.00024H8.37829C7.72943 1.00024 7.14546 1.42198 6.97243 2.04917Z" fill="#319B42"/>
<g id="Vector_3">
<path d="M21.3243 4.56733V9.00233H23.9206V6.40623H26.7115C27.9231 6.40623 28.9508 5.63822 29.3294 4.56733H21.3243Z" fill="#319B42"/>
<path d="M26.6357 1.00024H20.859C21.216 2.90405 22.8819 4.24537 24.8832 4.24537H29.3725C29.405 4.07229 29.4266 3.87758 29.4266 3.68288C29.4266 2.13604 28.1826 1.00024 26.6357 1.00024Z" fill="url(#paint0_linear_7_374)"/>
</g>
</g>
<defs>
<linearGradient id="paint0_linear_7_374" x1="20.859" y1="2.6228" x2="29.4266" y2="2.6228" gradientUnits="userSpaceOnUse">
<stop stop-color="#00A3E1"/>
<stop offset="0.3042" stop-color="#009ADD"/>
<stop offset="0.7987" stop-color="#0082D4"/>
<stop offset="1" stop-color="#0076CF"/>
</linearGradient>
</defs>
</svg>

<svg width="30" height="10" fill="none" xmlns="http://www.w3.org/2000/svg"><path d="m16.681 1.844-1.817 3.914h-.184V1h-2.595v8.002h2.152c.584 0 1.103-.335 1.352-.854l1.827-3.904h.184v4.758h2.596V1H18.01c-.562 0-1.092.335-1.33.844zM6.972 2.05l-1.07 3.708h-.184L4.637 2.05A1.46 1.46 0 0 0 3.23 1H.668v8.002h2.595V4.244h.184l1.492 4.758h1.73l1.493-4.758h.184v4.758h2.595V1H8.378a1.45 1.45 0 0 0-1.406 1.05zM21.324 4.567v4.435h2.597V6.406h2.79c1.212 0 2.24-.768 2.618-1.839h-8.005z" fill="#319B42"/><path d="M26.636 1h-5.777c.357 1.904 2.023 3.245 4.024 3.245h4.49c.032-.173.054-.367.054-.562C29.427 2.136 28.183 1 26.636 1z" fill="url(#a)"/><defs><linearGradient id="a" x1="20.859" y1="2.623" x2="29.427" y2="2.623" gradientUnits="userSpaceOnUse"><stop stop-color="#00A3E1"/><stop offset=".304" stop-color="#009ADD"/><stop offset=".799" stop-color="#0082D4"/><stop offset="1" stop-color="#0076CF"/></linearGradient></defs></svg>
